tools/download-figma-icons/icons/outlined-large/construction.svg

<svg width="64" height="64" viewBox="0 0 64 64" fill="none" xmlns="http://www.w3.org/2000/svg">
<path fill-rule="evenodd" clip-rule="evenodd" d="M57.121 34.9999L61 31.1209V34.9999H57.121ZM49.032 60.9999H52V37.9999H49.032V60.9999ZM12.0321 60.9999H15.0001V37.9999H12.0321V60.9999ZM6.87911 20L3.00012 23.879V20H6.87911ZM13.5001 15C14.0141 15 14.5161 14.948 15.0001 14.849V17H12.0001V14.849C12.4841 14.948 12.9861 15 13.5001 15ZM13.5001 2.99999C15.9811 2.99999 18.0001 5.01899 18.0001 7.49999C18.0001 9.98098 15.9811 12 13.5001 12C11.0181 12 9.0001 9.98098 9.0001 7.49999C9.0001 5.01899 11.0181 2.99999 13.5001 2.99999ZM50.5 15C51.014 15 51.516 14.948 52 14.849V17H49V14.849C49.484 14.948 49.986 15 50.5 15ZM50.5 2.99999C52.981 2.99999 55 5.01899 55 7.49999C55 9.98098 52.981 12 50.5 12C48.018 12 46 9.98098 46 7.49999C46 5.01899 48.018 2.99999 50.5 2.99999ZM3.00012 34.9999V28.1209L11.1211 20H16.5001H18.8791L3.87911 34.9999H3.00012ZM10.5321 34.9999H8.12111L23.1211 20H30.8791L15.8791 34.9999H10.5321ZM20.1211 34.9999L35.1211 20H42.879L27.8791 34.9999H20.1211ZM32.1211 34.9999L47.121 20H47.5H53.5H54.879L39.879 34.9999H32.1211ZM61 26.8789L52.879 34.9999H47.532H44.121L59.121 20H61V26.8789ZM62.5 17H55V13.5C55 13.496 54.999 13.491 54.999 13.487C56.817 12.117 58 9.94698 58 7.49999C58 3.36399 54.636 0 50.5 0C46.364 0 43 3.36399 43 7.49999C43 9.94698 44.183 12.117 46.001 13.487C46.001 13.491 46 13.496 46 13.5V17H18.0001V13.5C18.0001 13.496 17.9991 13.491 17.9991 13.487C19.8171 12.117 21.0001 9.94698 21.0001 7.49999C21.0001 3.36399 17.6361 0 13.5001 0C9.3641 0 6.00011 3.36399 6.00011 7.49999C6.00011 9.94698 7.18311 12.117 9.00111 13.487C9.00111 13.491 9.0001 13.496 9.0001 13.5V17H1.50012C0.672121 17 0.00012207 17.671 0.00012207 18.5V36.4999C0.00012207 37.3279 0.672121 37.9999 1.50012 37.9999H9.0321V62.4999C9.0321 63.3279 9.7041 63.9999 10.5321 63.9999H16.5001C17.3281 63.9999 18.0001 63.3279 18.0001 62.4999V37.9999H46.032V62.4999C46.032 63.3279 46.704 63.9999 47.532 63.9999H53.5C54.328 63.9999 55 63.3279 55 62.4999V37.9999H62.5C63.328 37.9999 64 37.3279 64 36.4999V18.5C64 17.671 63.328 17 62.5 17Z" fill="black"/>
</svg>

<svg width="64" height="64" viewBox="0 0 64 64" fill="none" xmlns="http://www.w3.org/2000/svg"><path fill-rule="evenodd" clip-rule="evenodd" d="M57.121 35 61 31.12V35h-3.879Zm-8.089 26H52V38h-2.968v23Zm-37 0H15V38h-2.968v23ZM6.88 20 3 23.879V20h3.88Zm6.621-5c.514 0 1.016-.052 1.5-.151V17h-3v-2.151c.484.099.986.151 1.5.151Zm0-12C15.981 3 18 5.019 18 7.5S15.981 12 13.5 12A4.505 4.505 0 0 1 9 7.5C9 5.019 11.018 3 13.5 3Zm37 12c.514 0 1.016-.052 1.5-.151V17h-3v-2.151c.484.099.986.151 1.5.151Zm0-12C52.981 3 55 5.019 55 7.5S52.981 12 50.5 12A4.505 4.505 0 0 1 46 7.5C46 5.019 48.018 3 50.5 3ZM3 35v-6.88L11.121 20h7.758l-15 15H3Zm7.532 0h-2.41l15-15h7.757l-15 15h-5.347Zm9.59 0 15-15h7.757l-15 15h-7.758Zm12 0L47.12 20h7.759l-15 15h-7.758ZM61 26.879l-8.121 8.12h-8.758l15-14.999H61v6.879ZM62.5 17H55v-3.5l-.001-.013A7.486 7.486 0 0 0 58 7.5C58 3.364 54.636 0 50.5 0S43 3.364 43 7.5a7.486 7.486 0 0 0 3.001 5.987L46 13.5V17H18v-3.513A7.486 7.486 0 0 0 21 7.5C21 3.364 17.636 0 13.5 0S6 3.364 6 7.5a7.486 7.486 0 0 0 3.001 5.987V17H1.5A1.5 1.5 0 0 0 0 18.5v18A1.5 1.5 0 0 0 1.5 38h7.531v24.5a1.5 1.5 0 0 0 1.5 1.5H16.5a1.5 1.5 0 0 0 1.5-1.5V38h28.032v24.5a1.5 1.5 0 0 0 1.5 1.5H53.5a1.5 1.5 0 0 0 1.5-1.5V38h7.5a1.5 1.5 0 0 0 1.5-1.5v-18a1.5 1.5 0 0 0-1.5-1.5Z" fill="currentColor"/></svg>
